assets/2023/icons/vite.svg

<svg width="16" height="16" viewBox="0 0 16 16" fill="none" xmlns="http://www.w3.org/2000/svg">
<path d="M0.983314 2.86997L7.56292 14.7133C7.75342 15.0562 8.24658 15.0562 8.43708 14.7133L15.0167 2.86997C15.2164 2.51057 14.9211 2.07719 14.5135 2.13153L8.06608 2.99119C8.02222 2.99704 7.97778 2.99704 7.93392 2.99119L1.48647 2.13153C1.07894 2.07719 0.783649 2.51057 0.983314 2.86997Z" fill="url(#paint0_linear_3770_47246)"/>
<path d="M12.8056 3.87107L8.14655 12.7657C8.03931 12.9704 7.72794 12.8603 7.77327 12.6336L8.43241 9.33794C8.46253 9.18736 8.31873 9.06042 8.17305 9.10898L7.31513 9.39495C7.17215 9.44262 7.02983 9.321 7.05461 9.17234L7.44985 6.80089C7.47353 6.65882 7.3438 6.53905 7.20407 6.57398L5.77102 6.93225C5.63806 6.96549 5.51182 6.85818 5.5232 6.72161L5.98708 1.15509C5.99468 1.06387 6.06322 0.989463 6.15351 0.974416L11.6582 0.0569706C11.8101 0.031655 11.9324 0.18029 11.8783 0.324474L10.6263 3.66309C10.5713 3.80997 10.699 3.9602 10.8528 3.92943L12.5892 3.58215C12.7542 3.54917 12.8837 3.72209 12.8056 3.87107Z" fill="url(#paint1_linear_3770_47246)"/>
<defs>
<linearGradient id="paint0_linear_3770_47246" x1="0.884067" y1="1.56823" x2="9.51041" y2="12.8118" gradientUnits="userSpaceOnUse">
<stop stop-color="#41D1FF"/>
<stop offset="1" stop-color="#BD34FE"/>
</linearGradient>
<linearGradient id="paint1_linear_3770_47246" x1="7.59894" y1="0.291434" x2="9.16585" y2="11.5965" gradientUnits="userSpaceOnUse">
<stop stop-color="#FFEA83"/>
<stop offset="0.0833333" stop-color="#FFDD35"/>
<stop offset="1" stop-color="#FFA800"/>
</linearGradient>
</defs>
</svg>

<svg xmlns="http://www.w3.org/2000/svg" width="16" height="16" fill="none" viewBox="0 0 16 16"><path fill="url(#a)" d="m.983 2.87 6.58 11.843a.5.5 0 0 0 .874 0l6.58-11.843a.5.5 0 0 0-.503-.738l-6.448.86a.5.5 0 0 1-.132 0l-6.448-.86a.5.5 0 0 0-.503.738"/><path fill="url(#b)" d="m12.806 3.871-4.66 8.895c-.107.204-.418.094-.373-.132l.66-3.296a.2.2 0 0 0-.26-.229l-.858.286a.2.2 0 0 1-.26-.223l.395-2.371a.2.2 0 0 0-.246-.227l-1.433.358a.2.2 0 0 1-.248-.21l.464-5.567a.2.2 0 0 1 .167-.18l5.504-.918a.2.2 0 0 1 .22.267l-1.252 3.34a.2.2 0 0 0 .227.265l1.736-.347a.2.2 0 0 1 .217.29"/><defs><linearGradient id="a" x1=".884" x2="9.51" y1="1.568" y2="12.812" gradientUnits="userSpaceOnUse"><stop stop-color="#41D1FF"/><stop offset="1" stop-color="#BD34FE"/></linearGradient><linearGradient id="b" x1="7.599" x2="9.166" y1=".291" y2="11.597" gradientUnits="userSpaceOnUse"><stop stop-color="#FFEA83"/><stop offset=".083" stop-color="#FFDD35"/><stop offset="1" stop-color="#FFA800"/></linearGradient></defs></svg>
